src/img/icons/beatbox.svg

<svg xmlns="http://www.w3.org/2000/svg" xmlns:xlink="http://www.w3.org/1999/xlink" width="384pt" height="384pt" version="1.1" viewBox="0 0 384 384"> <defs> <filter id="alpha" width="100%" height="100%" x="0%" y="0%" filterUnits="objectBoundingBox"> <feColorMatrix in="SourceGraphic" type="matrix" values="0 0 0 0 1 0 0 0 0 1 0 0 0 0 1 0 0 0 1 0"/> </filter> <mask id="mask0"> <g filter="url(#alpha)"> <rect width="384" height="384" x="0" y="0" style="fill:rgb(0%,0%,0%);fill-opacity:0.301961"/> </g> </mask> <clipPath id="clip1"> <rect width="384" height="384" x="0" y="0"/> </clipPath> <g id="surface5" clip-path="url(#clip1)"> <path style="fill-rule:evenodd;fill:rgb(0%,0%,0%)" d="M 309.058594 86.179688 L 309.058594 297.820312 C 311.480469 293.390625 312.859375 288.300781 312.859375 282.878906 L 312.859375 101.121094 C 312.859375 95.699219 311.480469 90.609375 309.058594 86.179688 Z M 309.058594 86.179688"/> </g> <mask id="mask1"> <g filter="url(#alpha)"> <rect width="384" height="384" x="0" y="0" style="fill:rgb(0%,0%,0%);fill-opacity:0.301961"/> </g> </mask> <clipPath id="clip2"> <rect width="384" height="384" x="0" y="0"/> </clipPath> <g id="surface8" clip-path="url(#clip2)"> <path style="fill-rule:evenodd;fill:rgb(0%,0%,0%)" d="M 167.460938 129.578125 L 167.058594 175.484375 L 166.660156 221.386719 L 163.28125 220.289062 C 162 219.875 159.6875 219.359375 157.375 218.945312 C 155.566406 218.496094 153.710938 218.265625 151.847656 218.253906 C 139.148438 218.253906 128.851562 228.367188 128.851562 240.839844 C 128.855469 253.3125 139.148438 263.421875 151.847656 263.421875 C 152.433594 263.421875 153.015625 263.398438 153.601562 263.351562 C 159.394531 263.089844 168.207031 259.722656 171.058594 253.21875 C 173.523438 249.542969 174.835938 245.238281 174.84375 240.839844 C 174.839844 240.394531 174.824219 239.953125 174.796875 239.507812 L 175.773438 205.792969 C 175.773438 183.046875 176.378906 164.910156 177.152344 164.433594 C 178.957031 163.316406 190.339844 176.285156 194.332031 184.007812 C 196.53125 188.257812 197.746094 194.320312 198.414062 204.417969 C 199.304688 217.804688 199.5 218.472656 201.289062 214.242188 C 204.710938 206.167969 205.789062 196.515625 204.304688 187.285156 C 202.519531 176.210938 199.101562 169.378906 190.09375 158.898438 C 182.210938 149.722656 179.109375 144.417969 176.488281 135.625 C 175.039062 130.761719 173.980469 129.578125 171.074219 129.578125 Z M 167.460938 129.578125"/> </g> <mask id="mask2"> <g filter="url(#alpha)"> <rect width="384" height="384" x="0" y="0" style="fill:rgb(0%,0%,0%);fill-opacity:0.301961"/> </g> </mask> <clipPath id="clip3"> <rect width="384" height="384" x="0" y="0"/> </clipPath> <g id="surface11" clip-path="url(#clip3)"> <path style="fill-rule:evenodd;fill:rgb(0%,0%,0%)" d="M 15.75 292.902344 L 15.75 301.28125 C 15.75 321.984375 32.417969 338.65625 53.121094 338.65625 L 271.6875 338.65625 C 292.390625 338.65625 309.058594 321.984375 309.058594 301.28125 L 309.058594 292.902344 C 309.058594 313.605469 292.390625 330.273438 271.6875 330.273438 L 53.121094 330.273438 C 32.417969 330.273438 15.75 313.605469 15.75 292.902344 Z M 15.75 292.902344"/> </g> </defs> <g> <path style="fill:rgb(20.000%,20.000%,20.000%)" d="M 368.25 192 C 368.25 254.480469 317.597656 305.132812 255.117188 305.132812 C 192.636719 305.132812 141.984375 254.480469 141.984375 192 C 141.984375 129.519531 192.636719 78.867188 255.117188 78.867188 C 317.597656 78.867188 368.25 129.519531 368.25 192 Z M 368.25 192"/> <path style="fill:rgb(29.803%,29.803%,29.803%)" d="M 302.253906 192 C 302.253906 218.035156 281.152344 239.140625 255.117188 239.140625 C 229.082031 239.140625 207.976562 218.035156 207.976562 192 C 207.976562 165.964844 229.082031 144.859375 255.117188 144.859375 C 281.152344 144.859375 302.253906 165.964844 302.253906 192 Z M 302.253906 192"/> <path style="fill:rgb(12.549%,65.882%,68.627%)" d="M 289.683594 192 C 289.683594 211.089844 274.207031 226.570312 255.117188 226.570312 C 236.023438 226.570312 220.546875 211.089844 220.546875 192 C 220.546875 172.910156 236.023438 157.429688 255.117188 157.429688 C 274.207031 157.429688 289.683594 172.910156 289.683594 192 Z M 289.683594 192"/> <path style="fill:rgb(20.000%,20.000%,20.000%)" d="M 258.257812 192 C 258.257812 193.734375 256.851562 195.140625 255.117188 195.140625 C 253.382812 195.140625 251.972656 193.734375 251.972656 192 C 251.972656 190.265625 253.382812 188.855469 255.117188 188.855469 C 256.851562 188.855469 258.257812 190.265625 258.257812 192 Z M 258.257812 192"/> <path style="fill:none;stroke-width:1.124999;stroke:rgb(29.803%,29.803%,29.803%)" d="M -488.142762 625.492058 C -488.142762 736.942607 -578.491821 827.291665 -689.94237 827.291665 C -801.392918 827.291665 -891.741977 736.942607 -891.741977 625.492058 C -891.741977 514.041509 -801.392918 423.692451 -689.94237 423.692451 C -578.491821 423.692451 -488.142762 514.041509 -488.142762 625.492058 Z M -488.142762 625.492058" transform="matrix(0.558684,0,0,0.558684,640.576867,-157.45233)"/> <path style="fill:none;stroke-width:1.125;stroke:rgb(29.803%,29.803%,29.803%)" d="M -499.392695 625.492058 C -499.392695 730.733819 -584.707601 816.041732 -689.94237 816.041732 C -795.18413 816.041732 -880.492044 730.733819 -880.492044 625.492058 C -880.492044 520.250298 -795.18413 434.942384 -689.94237 434.942384 C -584.707601 434.942384 -499.392695 520.250298 -499.392695 625.492058 Z M -499.392695 625.492058" transform="matrix(0.558684,0,0,0.558684,640.576867,-157.45233)"/> <path style="fill:none;stroke-width:1.125;stroke:rgb(29.803%,29.803%,29.803%)" d="M -505.014166 625.492058 C -505.014166 727.622432 -587.811995 810.420262 -689.94237 810.420262 C -792.072744 810.420262 -874.870573 727.622432 -874.870573 625.492058 C -874.870573 523.361684 -792.072744 440.563855 -689.94237 440.563855 C -587.811995 440.563855 -505.014166 523.361684 -505.014166 625.492058 Z M -505.014166 625.492058" transform="matrix(0.558684,0,0,0.558684,640.576867,-157.45233)"/> <path style="fill:none;stroke-width:1.125;stroke:rgb(29.803%,29.803%,29.803%)" d="M -510.642629 625.492058 C -510.642629 724.518038 -590.91639 804.791799 -689.94237 804.791799 C -788.96835 804.791799 -869.242111 724.518038 -869.242111 625.492058 C -869.242111 526.466078 -788.96835 446.192317 -689.94237 446.192317 C -590.91639 446.192317 -510.642629 526.466078 -510.642629 625.492058 Z M -510.642629 625.492058" transform="matrix(0.558684,0,0,0.558684,640.576867,-157.45233)"/> <path style="fill:none;stroke-width:1.125;stroke:rgb(29.803%,29.803%,29.803%)" d="M -516.264099 625.492058 C -516.264099 721.413644 -594.027776 799.170329 -689.94237 799.170329 C -785.863955 799.170329 -863.62064 721.413644 -863.62064 625.492058 C -863.62064 529.570472 -785.863955 451.813788 -689.94237 451.813788 C -594.027776 451.813788 -516.264099 529.570472 -516.264099 625.492058 Z M -516.264099 625.492058" transform="matrix(0.558684,0,0,0.558684,640.576867,-157.45233)"/> <path style="fill:none;stroke-width:1.125;stroke:rgb(29.803%,29.803%,29.803%)" d="M -521.892562 625.492058 C -521.892562 718.302258 -597.13217 793.541866 -689.94237 793.541866 C -782.752569 793.541866 -857.992178 718.302258 -857.992178 625.492058 C -857.992178 532.681858 -782.752569 457.44225 -689.94237 457.44225 C -597.13217 457.44225 -521.892562 532.681858 -521.892562 625.492058 Z M -521.892562 625.492058" transform="matrix(0.558684,0,0,0.558684,640.576867,-157.45233)"/> <path style="fill:none;stroke-width:5.624997;stroke:rgb(29.803%,29.803%,29.803%)" d="M -527.514032 625.492058 C -527.514032 715.197864 -600.236564 787.920396 -689.94237 787.920396 C -779.648175 787.920396 -852.370707 715.197864 -852.370707 625.492058 C -852.370707 535.786253 -779.648175 463.063721 -689.94237 463.063721 C -600.236564 463.063721 -527.514032 535.786253 -527.514032 625.492058 Z M -527.514032 625.492058" transform="matrix(0.558684,0,0,0.558684,640.576867,-157.45233)"/> <path style="fill:none;stroke-width:1.125;stroke:rgb(29.803%,29.803%,29.803%)" d="M -533.142495 625.492058 C -533.142495 712.09347 -603.340958 782.291933 -689.94237 782.291933 C -776.543781 782.291933 -846.742244 712.09347 -846.742244 625.492058 C -846.742244 538.890647 -776.543781 468.692183 -689.94237 468.692183 C -603.340958 468.692183 -533.142495 538.890647 -533.142495 625.492058 Z M -533.142495 625.492058" transform="matrix(0.558684,0,0,0.558684,640.576867,-157.45233)"/> <path style="fill:none;stroke-width:1.125;stroke:rgb(29.803%,29.803%,29.803%)" d="M -538.763965 625.492058 C -538.763965 708.982083 -606.452344 776.670463 -689.94237 776.670463 C -773.432395 776.670463 -841.120774 708.982083 -841.120774 625.492058 C -841.120774 542.002033 -773.432395 474.313654 -689.94237 474.313654 C -606.452344 474.313654 -538.763965 542.002033 -538.763965 625.492058 Z M -538.763965 625.492058" transform="matrix(0.558684,0,0,0.558684,640.576867,-157.45233)"/> <path style="fill:none;stroke-width:1.125;stroke:rgb(29.803%,29.803%,29.803%)" d="M -544.392428 625.492058 C -544.392428 705.877689 -609.556739 771.042 -689.94237 771.042 C -770.328001 771.042 -835.492311 705.877689 -835.492311 625.492058 C -835.492311 545.106427 -770.328001 479.942116 -689.94237 479.942116 C -609.556739 479.942116 -544.392428 545.106427 -544.392428 625.492058 Z M -544.392428 625.492058" transform="matrix(0.558684,0,0,0.558684,640.576867,-157.45233)"/> <path style="fill:none;stroke-width:1.125;stroke:rgb(29.803%,29.803%,29.803%)" d="M -550.013898 625.492058 C -550.013898 702.773295 -612.661133 765.420529 -689.94237 765.420529 C -767.223606 765.420529 -829.870841 702.773295 -829.870841 625.492058 C -829.870841 548.210821 -767.223606 485.563587 -689.94237 485.563587 C -612.661133 485.563587 -550.013898 548.210821 -550.013898 625.492058 Z M -550.013898 625.492058" transform="matrix(0.558684,0,0,0.558684,640.576867,-157.45233)"/> <path style="fill:none;stroke-width:1.125;stroke:rgb(29.803%,29.803%,29.803%)" d="M -555.642361 625.492058 C -555.642361 699.661909 -615.772519 759.792067 -689.94237 759.792067 C -764.119212 759.792067 -824.242378 699.661909 -824.242378 625.492058 C -824.242378 551.322207 -764.119212 491.192049 -689.94237 491.192049 C -615.772519 491.192049 -555.642361 551.322207 -555.642361 625.492058 Z M -555.642361 625.492058" transform="matrix(0.558684,0,0,0.558684,640.576867,-157.45233)"/> <path style="fill:none;stroke-width:1.124999;stroke:rgb(29.803%,29.803%,29.803%)" d="M -561.263831 625.492058 C -561.263831 696.557515 -618.876913 754.170596 -689.94237 754.170596 C -761.007826 754.170596 -818.620908 696.557515 -818.620908 625.492058 C -818.620908 554.426602 -761.007826 496.81352 -689.94237 496.81352 C -618.876913 496.81352 -561.263831 554.426602 -561.263831 625.492058 Z M -561.263831 625.492058" transform="matrix(0.558684,0,0,0.558684,640.576867,-157.45233)"/> <path style="fill:none;stroke-width:5.624998;stroke:rgb(29.803%,29.803%,29.803%)" d="M -566.892294 625.492058 C -566.892294 693.453121 -621.981307 748.542134 -689.94237 748.542134 C -757.903432 748.542134 -812.999437 693.453121 -812.999437 625.492058 C -812.999437 557.530996 -757.903432 502.441982 -689.94237 502.441982 C -621.981307 502.441982 -566.892294 557.530996 -566.892294 625.492058 Z M -566.892294 625.492058" transform="matrix(0.558684,0,0,0.558684,640.576867,-157.45233)"/> <path style="fill:none;stroke-width:1.125;stroke:rgb(29.803%,29.803%,29.803%)" d="M -572.513764 625.492058 C -572.513764 690.348726 -625.092693 742.920663 -689.94237 742.920663 C -754.799038 742.920663 -807.370975 690.348726 -807.370975 625.492058 C -807.370975 560.63539 -754.799038 508.063453 -689.94237 508.063453 C -625.092693 508.063453 -572.513764 560.63539 -572.513764 625.492058 Z M -572.513764 625.492058" transform="matrix(0.558684,0,0,0.558684,640.576867,-157.45233)"/> <path style="fill:none;stroke-width:1.125;stroke:rgb(29.803%,29.803%,29.803%)" d="M -578.142227 625.492058 C -578.142227 687.23734 -628.197088 737.299193 -689.94237 737.299193 C -751.687652 737.299193 -801.749504 687.23734 -801.749504 625.492058 C -801.749504 563.746776 -751.687652 513.684924 -689.94237 513.684924 C -628.197088 513.684924 -578.142227 563.746776 -578.142227 625.492058 Z M -578.142227 625.492058" transform="matrix(0.558684,0,0,0.558684,640.576867,-157.45233)"/> <path style="fill:none;stroke-width:1.125;stroke:rgb(29.803%,29.803%,29.803%)" d="M -583.763697 625.492058 C -583.763697 684.132946 -631.301482 731.67073 -689.94237 731.67073 C -748.583257 731.67073 -796.121042 684.132946 -796.121042 625.492058 C -796.121042 566.85117 -748.583257 519.313386 -689.94237 519.313386 C -631.301482 519.313386 -583.763697 566.85117 -583.763697 625.492058 Z M -583.763697 625.492058" transform="matrix(0.558684,0,0,0.558684,640.576867,-157.45233)"/> <path style="fill:none;stroke-width:1.125;stroke:rgb(29.803%,29.803%,29.803%)" d="M -589.385168 625.492058 C -589.385168 681.028552 -634.405876 726.056252 -689.94237 726.056252 C -745.478863 726.056252 -790.506563 681.028552 -790.506563 625.492058 C -790.506563 569.955565 -745.478863 524.927865 -689.94237 524.927865 C -634.405876 524.927865 -589.385168 569.955565 -589.385168 625.492058 Z M -589.385168 625.492058" transform="matrix(0.558684,0,0,0.558684,640.576867,-157.45233)"/> <path style="fill:none;stroke-width:1.125;stroke:rgb(29.803%,29.803%,29.803%)" d="M -595.013631 625.492058 C -595.013631 677.917166 -637.517262 720.420797 -689.94237 720.420797 C -742.374469 720.420797 -784.871109 677.917166 -784.871109 625.492058 C -784.871109 573.066951 -742.374469 530.563319 -689.94237 530.563319 C -637.517262 530.563319 -595.013631 573.066951 -595.013631 625.492058 Z M -595.013631 625.492058" transform="matrix(0.558684,0,0,0.558684,640.576867,-157.45233)"/> <path style="fill:none;stroke-width:1.125;stroke:rgb(29.803%,29.803%,29.803%)" d="M -600.635101 625.492058 C -600.635101 674.812772 -640.621656 714.799327 -689.94237 714.799327 C -739.263083 714.799327 -779.249638 674.812772 -779.249638 625.492058 C -779.249638 576.171345 -739.263083 536.18479 -689.94237 536.18479 C -640.621656 536.18479 -600.635101 576.171345 -600.635101 625.492058 Z M -600.635101 625.492058" transform="matrix(0.558684,0,0,0.558684,640.576867,-157.45233)"/> <path style="fill:none;stroke-width:5.624998;stroke:rgb(29.803%,29.803%,29.803%)" d="M -490.25431 625.492058 C -490.25431 735.774963 -579.659465 825.180118 -689.94237 825.180118 C -800.225275 825.180118 -889.630429 735.774963 -889.630429 625.492058 C -889.630429 515.209153 -800.225275 425.803998 -689.94237 425.803998 C -579.659465 425.803998 -490.25431 515.209153 -490.25431 625.492058 Z M -490.25431 625.492058" transform="matrix(0.558684,0,0,0.558684,640.576867,-157.45233)"/> <use mask="url(#mask0)" xlink:href="#surface5"/> <path style="fill-rule:evenodd;fill:rgb(99.215%,49.019%,0%)" d="M 53.121094 45.34375 L 271.6875 45.34375 C 292.328125 45.34375 309.058594 62.078125 309.058594 82.71875 L 309.058594 301.28125 C 309.058594 321.921875 292.328125 338.652344 271.6875 338.652344 L 53.121094 338.652344 C 32.480469 338.652344 15.75 321.921875 15.75 301.28125 L 15.75 82.71875 C 15.75 62.078125 32.480469 45.34375 53.121094 45.34375 Z M 53.121094 45.34375"/> <use mask="url(#mask1)" xlink:href="#surface8"/> <path style="fill-rule:evenodd;fill:rgb(100.000%,100.000%,100.000%)" d="M 162.960938 125.078125 L 162.558594 170.984375 L 162.160156 216.886719 L 158.78125 215.789062 C 157.5 215.375 155.1875 214.859375 152.875 214.445312 C 151.066406 213.996094 149.210938 213.765625 147.347656 213.753906 C 134.648438 213.753906 124.351562 223.867188 124.351562 236.339844 C 124.355469 248.8125 134.648438 258.921875 147.347656 258.921875 C 147.933594 258.921875 148.515625 258.898438 149.101562 258.851562 C 154.894531 258.589844 163.707031 255.222656 166.558594 248.71875 C 169.023438 245.042969 170.335938 240.738281 170.34375 236.339844 C 170.339844 235.894531 170.324219 235.453125 170.296875 235.007812 L 171.273438 201.292969 C 171.273438 178.546875 171.878906 160.410156 172.652344 159.933594 C 174.457031 158.816406 185.839844 171.785156 189.832031 179.507812 C 192.03125 183.757812 193.246094 189.820312 193.914062 199.917969 C 194.804688 213.304688 195 213.972656 196.789062 209.742188 C 200.210938 201.667969 201.289062 192.015625 199.804688 182.785156 C 198.019531 171.710938 194.601562 164.878906 185.59375 154.398438 C 177.710938 145.222656 174.609375 139.917969 171.988281 131.125 C 170.539062 126.261719 169.480469 125.078125 166.574219 125.078125 Z M 162.960938 125.078125"/> <use mask="url(#mask2)" xlink:href="#surface11"/> </g> </svg>

<svg width="512" height="512" version="1.1" viewBox="0 0 384 384" xmlns="http://www.w3.org/2000/svg"><defs><clipPath id="f"><rect width="384" height="384"/></clipPath></defs><path d="m368.25 192c0 62.48-50.652 113.13-113.13 113.13-62.48 0-113.13-50.652-113.13-113.13s50.652-113.13 113.13-113.13c62.48 0 113.13 50.652 113.13 113.13z" fill="#333"/><path d="m302.25 192c0 26.035-21.102 47.141-47.137 47.141s-47.141-21.105-47.141-47.141 21.105-47.141 47.141-47.141c26.035 0 47.137 21.105 47.137 47.141z" fill="#4b4b4b"/><path d="m289.68 192c0 19.09-15.477 34.57-34.566 34.57-19.094 0-34.57-15.48-34.57-34.57s15.477-34.57 34.57-34.57c19.09 0 34.566 15.48 34.566 34.57z" fill="#1fa7ae"/><path d="m258.26 192c0 1.7344-1.4062 3.1406-3.1406 3.1406s-3.1445-1.4062-3.1445-3.1406 1.4102-3.1445 3.1445-3.1445c1.7344 0 3.1406 1.4102 3.1406 3.1445z" fill="#333"/><g fill="none" stroke="#4b4b4b"><path transform="matrix(.55868 0 0 .55868 640.58 -157.45)" d="m-488.14 625.49c0 111.45-90.349 201.8-201.8 201.8-111.45 0-201.8-90.349-201.8-201.8s90.349-201.8 201.8-201.8c111.45 0 201.8 90.349 201.8 201.8z" stroke-width="1.125"/><g stroke-width="1.125"><path transform="matrix(.55868 0 0 .55868 640.58 -157.45)" d="m-499.39 625.49c0 105.24-85.315 190.55-190.55 190.55-105.24 0-190.55-85.308-190.55-190.55 0-105.24 85.308-190.55 190.55-190.55 105.23 0 190.55 85.308 190.55 190.55z"/><path transform="matrix(.55868 0 0 .55868 640.58 -157.45)" d="m-505.01 625.49c0 102.13-82.798 184.93-184.93 184.93-102.13 0-184.93-82.798-184.93-184.93s82.798-184.93 184.93-184.93c102.13 0 184.93 82.798 184.93 184.93z"/><path transform="matrix(.55868 0 0 .55868 640.58 -157.45)" d="m-510.64 625.49c0 99.026-80.274 179.3-179.3 179.3s-179.3-80.274-179.3-179.3 80.274-179.3 179.3-179.3 179.3 80.274 179.3 179.3z"/><path transform="matrix(.55868 0 0 .55868 640.58 -157.45)" d="m-516.26 625.49c0 95.922-77.764 173.68-173.68 173.68-95.922 0-173.68-77.757-173.68-173.68s77.757-173.68 173.68-173.68c95.915 0 173.68 77.757 173.68 173.68z"/><path transform="matrix(.55868 0 0 .55868 640.58 -157.45)" d="m-521.89 625.49c0 92.81-75.24 168.05-168.05 168.05s-168.05-75.24-168.05-168.05 75.24-168.05 168.05-168.05 168.05 75.24 168.05 168.05z"/></g><path transform="matrix(.55868 0 0 .55868 640.58 -157.45)" d="m-527.51 625.49c0 89.706-72.723 162.43-162.43 162.43-89.706 0-162.43-72.723-162.43-162.43 0-89.706 72.723-162.43 162.43-162.43 89.706 0 162.43 72.723 162.43 162.43z" stroke-width="5.625"/><g stroke-width="1.125"><path transform="matrix(.55868 0 0 .55868 640.58 -157.45)" d="m-533.14 625.49c0 86.601-70.198 156.8-156.8 156.8-86.601 0-156.8-70.198-156.8-156.8 0-86.601 70.198-156.8 156.8-156.8 86.601 0 156.8 70.198 156.8 156.8z"/><path transform="matrix(.55868 0 0 .55868 640.58 -157.45)" d="m-538.76 625.49c0 83.49-67.688 151.18-151.18 151.18-83.49 0-151.18-67.688-151.18-151.18s67.688-151.18 151.18-151.18c83.49 0 151.18 67.688 151.18 151.18z"/><path transform="matrix(.55868 0 0 .55868 640.58 -157.45)" d="m-544.39 625.49c0 80.386-65.164 145.55-145.55 145.55s-145.55-65.164-145.55-145.55 65.164-145.55 145.55-145.55 145.55 65.164 145.55 145.55z"/><path transform="matrix(.55868 0 0 .55868 640.58 -157.45)" d="m-550.01 625.49c0 77.281-62.647 139.93-139.93 139.93-77.281 0-139.93-62.647-139.93-139.93s62.647-139.93 139.93-139.93c77.281 0 139.93 62.647 139.93 139.93z"/><path transform="matrix(.55868 0 0 .55868 640.58 -157.45)" d="m-555.64 625.49c0 74.17-60.13 134.3-134.3 134.3-74.177 0-134.3-60.13-134.3-134.3s60.123-134.3 134.3-134.3c74.17 0 134.3 60.13 134.3 134.3z"/></g><path transform="matrix(.55868 0 0 .55868 640.58 -157.45)" d="m-561.26 625.49c0 71.065-57.613 128.68-128.68 128.68-71.065 0-128.68-57.613-128.68-128.68 0-71.065 57.613-128.68 128.68-128.68 71.065 0 128.68 57.613 128.68 128.68z" stroke-width="1.125"/><path transform="matrix(.55868 0 0 .55868 640.58 -157.45)" d="m-566.89 625.49c0 67.961-55.089 123.05-123.05 123.05s-123.06-55.089-123.06-123.05 55.096-123.05 123.06-123.05c67.961 0 123.05 55.089 123.05 123.05z" stroke-width="5.625"/><g stroke-width="1.125"><path transform="matrix(.55868 0 0 .55868 640.58 -157.45)" d="m-572.51 625.49c0 64.857-52.579 117.43-117.43 117.43-64.857 0-117.43-52.572-117.43-117.43s52.572-117.43 117.43-117.43c64.85 0 117.43 52.572 117.43 117.43z"/><path transform="matrix(.55868 0 0 .55868 640.58 -157.45)" d="m-578.14 625.49c0 61.745-50.055 111.81-111.8 111.81s-111.81-50.062-111.81-111.81 50.062-111.81 111.81-111.81 111.8 50.062 111.8 111.81z"/><path transform="matrix(.55868 0 0 .55868 640.58 -157.45)" d="m-583.76 625.49c0 58.641-47.538 106.18-106.18 106.18-58.641 0-106.18-47.538-106.18-106.18s47.538-106.18 106.18-106.18c58.641 0 106.18 47.538 106.18 106.18z"/><path transform="matrix(.55868 0 0 .55868 640.58 -157.45)" d="m-589.39 625.49c0 55.536-45.021 100.56-100.56 100.56-55.536 0-100.56-45.028-100.56-100.56 0-55.536 45.028-100.56 100.56-100.56 55.536 0 100.56 45.028 100.56 100.56z"/><path transform="matrix(.55868 0 0 .55868 640.58 -157.45)" d="m-595.01 625.49c0 52.425-42.504 94.929-94.929 94.929-52.432 0-94.929-42.504-94.929-94.929s42.497-94.929 94.929-94.929c52.425 0 94.929 42.504 94.929 94.929z"/><path transform="matrix(.55868 0 0 .55868 640.58 -157.45)" d="m-600.64 625.49c0 49.321-39.987 89.307-89.307 89.307-49.321 0-89.307-39.987-89.307-89.307 0-49.321 39.987-89.307 89.307-89.307 49.321 0 89.307 39.987 89.307 89.307z"/></g><path transform="matrix(.55868 0 0 .55868 640.58 -157.45)" d="m-490.25 625.49c0 110.28-89.405 199.69-199.69 199.69s-199.69-89.405-199.69-199.69 89.405-199.69 199.69-199.69 199.69 89.405 199.69 199.69z" stroke-width="5.625"/></g><path d="m57.621 65.05h218.57c20.641 0 37.371 14.485 37.371 32.353v189.19c0 17.867-16.73 32.349-37.371 32.349h-218.57c-20.641 0-37.371-14.482-37.371-32.349v-189.19c0-17.867 16.73-32.353 37.371-32.353z" opacity=".3" stroke-width=".93039"/><g fill-rule="evenodd"><path d="m53.121 45.344h218.57c20.641 0 37.371 16.734 37.371 37.375v218.56c0 20.641-16.73 37.371-37.371 37.371h-218.57c-20.641 0-37.371-16.73-37.371-37.371v-218.56c0-20.641 16.73-37.375 37.371-37.375z" fill="#fc7c00"/><path d="m162.96 132.58-0.40234 45.906-0.39844 45.902-3.3789-1.0977c-1.2812-0.41406-3.5938-0.92969-5.9062-1.3438-1.8086-0.44922-3.6641-0.67969-5.5273-0.69141-12.699 0-22.996 10.113-22.996 22.586 4e-3 12.473 10.297 22.582 22.996 22.582 0.58594 0 1.168-0.0234 1.7539-0.0703 5.793-0.26172 14.605-3.6289 17.457-10.133 2.4648-3.6758 3.7773-7.9805 3.7852-12.379-4e-3 -0.44531-0.0195-0.88672-0.0469-1.332l0.97656-33.715c0-22.746 0.60547-40.883 1.3789-41.359 1.8047-1.1172 13.188 11.852 17.18 19.574 2.1992 4.25 3.4141 10.312 4.082 20.41 0.89063 13.387 1.0859 14.055 2.875 9.8242 3.4219-8.0742 4.5-17.727 3.0156-26.957-1.7852-11.074-5.2031-17.906-14.211-28.387-7.8828-9.1758-10.984-14.48-13.605-23.273-1.4492-4.8633-2.5078-6.0469-5.4141-6.0469z" opacity=".3"/><path d="m162.96 125.08-0.40234 45.906-0.39844 45.902-3.3789-1.0977c-1.2812-0.41406-3.5938-0.92969-5.9062-1.3438-1.8086-0.44922-3.6641-0.67969-5.5273-0.69141-12.699 0-22.996 10.113-22.996 22.586 0.003907 12.473 10.297 22.582 22.996 22.582 0.58594 0 1.168-0.023437 1.7539-0.070313 5.793-0.26172 14.605-3.6289 17.457-10.133 2.4648-3.6758 3.7773-7.9805 3.7852-12.379-0.003906-0.44531-0.019531-0.88672-0.046875-1.332l0.97656-33.715c0-22.746 0.60547-40.883 1.3789-41.359 1.8047-1.1172 13.188 11.852 17.18 19.574 2.1992 4.25 3.4141 10.312 4.082 20.41 0.89063 13.387 1.0859 14.055 2.875 9.8242 3.4219-8.0742 4.5-17.727 3.0156-26.957-1.7852-11.074-5.2031-17.906-14.211-28.387-7.8828-9.1758-10.984-14.48-13.605-23.273-1.4492-4.8633-2.5078-6.0469-5.4141-6.0469z" fill="#fff"/><path transform="scale(.75)" d="m21 389.71v12c0 27.521 22.307 49.828 49.828 49.828h291.42c27.521 0 49.828-22.307 49.828-49.828v-12c0 27.521-22.307 49.828-49.828 49.828h-291.42c-27.521 0-49.828-22.307-49.828-49.828z" opacity=".3" stroke-width="1.3333"/><path transform="scale(.75)" d="m70.828 60.459c-27.521 0-49.828 22.311-49.828 49.832v10c0-27.521 22.307-49.832 49.828-49.832h291.42c27.521 0 49.828 22.311 49.828 49.832v-10c1e-5 -27.521-22.307-49.832-49.828-49.832h-291.42z" fill="#fff" opacity=".3" stroke-width="1.3333"/></g></svg>
